static/assets/icons/clock.svg

<svg height="24" viewBox="0 0 24 24" width="24" xmlns="http://www.w3.org/2000/svg"><path d="m12 2c5.5228475 0 10 4.4771525 10 10s-4.4771525 10-10 10-10-4.4771525-10-10 4.4771525-10 10-10zm0 1c-4.97056275 0-9 4.02943725-9 9 0 4.9705627 4.02943725 9 9 9 4.9705627 0 9-4.0294373 9-9 0-4.97056275-4.0294373-9-9-9zm-.05 2c.2761424 0 .5.22385763.5.5v6.243l3.0855339 3.0854271c.1952622.1952622.1952622.5118447 0 .7071068-.1952621.1952622-.5118446.1952622-.7071068 0l-3.080686-3.0781319c-.1753831-.0776672-.2977411-.2532455-.2977411-.457402v-6.5c0-.27614237.2238576-.5.5-.5z" fill="#414b5d"/></svg>

<?xml version="1.0" encoding="UTF-8"?>
<svg width="24px" height="24px" viewBox="0 0 24 24" version="1.1" xmlns="http://www.w3.org/2000/svg" xmlns:xlink="http://www.w3.org/1999/xlink">
    <!-- Generator: Sketch 59.1 (86144) - https://sketch.com -->
    <title>Icons/Clock</title>
    <desc>Created with Sketch.</desc>
    <g id="Icons/Clock" stroke="none" stroke-width="1" fill="none" fill-rule="evenodd">
        <path d="M12,2 C17.5228475,2 22,6.4771525 22,12 C22,17.5228475 17.5228475,22 12,22 C6.4771525,22 2,17.5228475 2,12 C2,6.4771525 6.4771525,2 12,2 Z M12,3 C7.02943725,3 3,7.02943725 3,12 C3,16.9705627 7.02943725,21 12,21 C16.9705627,21 21,16.9705627 21,12 C21,7.02943725 16.9705627,3 12,3 Z M11.95,5 C12.2261424,5 12.45,5.22385763 12.45,5.5 L12.45,11.743 L15.5355339,14.8284271 C15.7307961,15.0236893 15.7307961,15.3402718 15.5355339,15.5355339 C15.3402718,15.7307961 15.0236893,15.7307961 14.8284271,15.5355339 L11.7477411,12.457402 C11.572358,12.3797348 11.45,12.2041565 11.45,12 L11.45,5.5 C11.45,5.22385763 11.6738576,5 11.95,5 Z" id="Shape" fill="#414B5D" fill-rule="nonzero"></path>
    </g>
</svg>
